public/cloud.svg

<?xml version="1.0"?>
<svg xmlns="http://www.w3.org/2000/svg" width="50" height="50" viewBox="0 0 50 50">
    <path style="text-indent:0;text-align:start;line-height:normal;text-transform:none;block-progression:tb;-inkscape-font-specification:Bitstream Vera Sans" d="M 22.5 11 C 16.712628 11 12 15.712628 12 21.5 C 12 21.672664 12.02189 21.831473 12.03125 22 C 12.02044 21.999948 12.01084 22 12 22 C 7.593562 22 4 25.593562 4 30 C 4 34.406438 7.593562 38 12 38 L 36 38 C 41.511334 38 46 33.511334 46 28 C 46 22.488666 41.511334 18 36 18 C 34.746738 18 33.573364 18.296292 32.46875 18.71875 C 31.232227 14.296935 27.307304 11 22.5 11 z M 22.5 13 C 26.749468 13 30.233383 16.097149 30.875 20.15625 L 31.09375 21.53125 L 32.34375 20.90625 C 33.447267 20.335773 34.674653 20 36 20 C 40.430666 20 44 23.569334 44 28 C 44 32.430666 40.430666 36 36 36 L 12 36 C 8.674438 36 6 33.325562 6 30 C 6 26.674438 8.674438 24 12 24 C 12.322799 24 12.634389 24.03832 12.96875 24.09375 L 14.375 24.3125 L 14.125 22.9375 C 14.043066 22.456944 14 21.97753 14 21.5 C 14 16.793372 17.793372 13 22.5 13 z" overflow="visible" enable-background="accumulate" font-family="Bitstream Vera Sans"/>
</svg>

<svg id="cloud" xmlns="http://www.w3.org/2000/svg" viewBox="0 0 42 27">
  <path d="M22.5,11A10.51,10.51,0,0,0,12,21.5c0,.17,0,.33,0,.5h0a8,8,0,0,0,0,16H36a10,10,0,0,0,0-20,9.88,9.88,0,0,0-3.53.72A10.39,10.39,0,0,0,22.5,11Zm0,2a8.48,8.48,0,0,1,8.38,7.16l.21,1.37,1.25-.62A8,8,0,1,1,36,36H12a6,6,0,0,1,0-12,6.61,6.61,0,0,1,1,.09l1.41.22-.25-1.37A7.79,7.79,0,0,1,14,21.5,8.48,8.48,0,0,1,22.5,13Z" transform="translate(-4 -11)"/>
</svg>
